Hatter-kde/actions/22/labplot-4x-zoom.svg

<svg xmlns="http://www.w3.org/2000/svg" viewBox="0 0 22 22">
  <defs id="defs3051">
    <style type="text/css" id="current-color-scheme">
      .ColorScheme-Text {
        color:#363636;
      }
      .ColorScheme-Highlight {
        color:#3daee9;
      }
      </style>
  </defs>
 <path 
     style="fill:currentColor;fill-opacity:1;stroke:none" 
     d="M 20.287449,16.967346 19,16.967346 19,19 l -1.062754,0 0,-2.032654 -4.251012,0 0,-0.936734 L 17.864372,10 19,10 l 0,5.975509 1.287449,0 0,0.991837 z m -2.350203,-0.991837 0,-2.816326 q 0,-0.838775 0.0668,-1.983673 l -0.05466,0 q -0.0668,0.159183 -0.236842,0.477551 -0.163968,0.318367 -0.297571,0.502041 l -2.659919,3.820407 3.182186,0 z"
     class="ColorScheme-Highlight"
     />
 <path 
     style="fill:currentColor;fill-opacity:1;stroke:none" 
     d="M 3,3 3,5 4,5 4,4 5,4 5,3 3,3 Z m 5,0 0,1 2,0 0,-1 -2,0 z m 4,0 0,1 2,0 0,-1 -2,0 z m 5,0 0,1 1,0 0,1 1,0 0,-2 -2,0 z M 9,7 9,8 11.292969,8 8,11.292969 8.707031,12 12,8.7070312 12,11 13,11 13,7 12,7 9,7 Z M 3,8 3,10 4,10 4,8 3,8 Z m 0,5 0,6 6,0 0,-6 -6,0 z m 1,1 4,0 0,4 -4,0 0,-4 z"
     class="ColorScheme-Text"
     />
</svg>

<?xml version="1.0" encoding="UTF-8"?>
<svg viewBox="0 0 22 22" xmlns="http://www.w3.org/2000/svg">
 <defs id="defs3051">
  <style id="current-color-scheme" type="text/css">.ColorScheme-Text {
        color:#363636;
      }
      .ColorScheme-Highlight {
        color:#3daee9;
      }</style>
 </defs>
 <path class="ColorScheme-Highlight" d="m20.287 16.967h-1.2874v2.0327h-1.0628v-2.0327h-4.251v-0.93673l4.1781-6.0306h1.1356v5.9755h1.2874v0.99184zm-2.3502-0.99184v-2.8163q0-0.83878 0.0668-1.9837h-0.05466q-0.0668 0.15918-0.23684 0.47755-0.16397 0.31837-0.29757 0.50204l-2.6599 3.8204h3.1822z" fill="currentColor"/>
 <path class="ColorScheme-Text" d="m3 3v2h1v-1h1v-1h-2zm5 0v1h2v-1h-2zm4 0v1h2v-1h-2zm5 0v1h1v1h1v-2h-2zm-8 4v1h2.293l-3.293 3.293 0.70703 0.70703 3.293-3.293v2.293h1v-4h-1-3zm-6 1v2h1v-2h-1zm0 5v6h6v-6h-6zm1 1h4v4h-4v-4z" fill="currentColor"/>
</svg>
